X: 45
T:Ymdaith yr Hen Gymry
T:The Old Welsh March
M:2/4
L:1/8
Q:220
C:Trad
S:Blodau'r Grug Collection Vol. 3
R:March
A:Wales
Z:brian_martin12345@yahoo.com
K:Am
E|A>A AA|E>^F ^GE|AA ^G/A/B/c/|dd/d/ de/d/|cA AA|!
E>^F ^GE|AA ^G/A/B/d/|cA A:||
c/d/|ee ec/d/|ee eB/c/|dd dB/c/|!dd e/d/c/B/|cA AA|
E>^F ^GE|AA ^G/A/B/d/|cA A:||

